icons/32x32/apps/kdeconnect.svg

<svg xmlns="http://www.w3.org/2000/svg" width="32" height="32" version="1">
 <rect style="opacity:0.2" width="23" height="30" x="4" y="2" rx="1.5" ry="1.5"/>
 <rect style="fill:#8e8e8e" width="23" height="30" x="4" y="1" rx="1.5" ry="1.5"/>
 <rect style="opacity:0.5" width="19" height="22" x="6" y="4" rx="1.5" ry="1.5"/>
 <rect style="opacity:0.5" width="7" height="1" x="12" y="2" rx=".5" ry=".5"/>
 <circle style="opacity:0.5" cx="15.5" cy="28.5" r="1.5"/>
 <path style="opacity:0.2;fill:#ffffff" d="M 5.5 1 C 4.669 1 4 1.669 4 2.5 L 4 3.5 C 4 2.669 4.669 2 5.5 2 L 25.5 2 C 26.331 2 27 2.669 27 3.5 L 27 2.5 C 27 1.669 26.331 1 25.5 1 L 5.5 1 z"/>
 <path style="opacity:0.2" d="m 17.01563,7.9746074 -3.015625,0.5253906 0,10.38672 3,-0.386719 -0.01563,-4.681642 3.539063,5.181642 L 24,18.499999 20,13.136717 24.013672,8.6367168 20.494146,7.9882792 16.98438,12.488279 Z m -6.341797,2.6523436 c -0.02897,0.0024 -0.0563,0.01511 -0.07813,0.03711 l -1.0351561,1.046875 c -0.04495,0.0453 -0.052447,0.115922 -0.017578,0.169922 l 1.2500001,1.919922 c -0.235809,0.418481 -0.413984,0.877322 -0.529297,1.357422 L 8.1054688,15.687499 C 8.0455628,15.702199 8,15.756359 8,15.818358 l 0,0.681641 0,0.681641 c 0,0.062 0.045563,0.116159 0.1054688,0.130859 l 2.1582032,0.529297 c 0.115313,0.480101 0.293488,0.938943 0.529297,1.357423 l -1.2500002,1.919922 c -0.034868,0.054 -0.027372,0.124623 0.017578,0.169921 l 1.0351562,1.046876 c 0.04364,0.044 0.111357,0.04763 0.164063,0.01562 l 1.958984,-1.201167 c 0.384328,0.2239 0.98551,0.404037 1.423828,0.523437 l 0.458985,2.216797 C 14.614313,23.954625 14.665143,24 14.728516,24 L 15.5,24 l 0.771484,0 c 0.06338,0 0.114202,-0.04537 0.126954,-0.109375 l 0.458984,-2.216797 c 0.438319,-0.1194 1.039502,-0.299537 1.423828,-0.523437 l 1.958984,1.201171 c 0.05271,0.032 0.120422,0.02838 0.164063,-0.01562 l 1.035156,-1.046876 c 0.04495,-0.0453 0.05245,-0.115921 0.01758,-0.169921 l -1.04101,-1.59961 -0.128907,0.01953 -0.730468,-1.070312 c -0.746065,1.563963 -2.323843,2.560614 -4.056641,2.5625 -2.485281,0 -4.5,-2.014719 -4.5,-4.500001 0.0014,-1.708129 0.969847,-3.26818 2.499998,-4.027347 l 0,-0.982422 c -0.285238,0.0951 -0.565511,0.202441 -0.78125,0.328125 l -1.958984,-1.201172 c -0.02635,-0.016 -0.05696,-0.02389 -0.08594,-0.02148 z"/>
 <path style="fill:#ffffff" d="m 17.01563,6.9746074 -3.015625,0.5253906 0,10.38672 3,-0.386719 -0.01563,-4.681642 3.539063,5.181642 L 24,17.499999 20,12.136717 24.013672,7.6367168 20.494146,6.9882792 16.98438,11.488279 Z M 10.673833,9.626951 c -0.02897,0.0024 -0.0563,0.01511 -0.07813,0.03711 l -1.0351561,1.046875 c -0.04495,0.0453 -0.052447,0.115922 -0.017578,0.169922 l 1.2500001,1.919922 c -0.235809,0.418481 -0.413984,0.877322 -0.529297,1.357422 L 8.1054688,14.687499 C 8.0455628,14.702199 8,14.756359 8,14.818358 l 0,0.681641 0,0.681641 c 0,0.062 0.045563,0.116159 0.1054688,0.130859 l 2.1582032,0.529297 c 0.115313,0.480101 0.293488,0.938943 0.529297,1.357423 l -1.2500002,1.919922 c -0.034868,0.054 -0.027372,0.124623 0.017578,0.169921 l 1.0351562,1.046876 c 0.04364,0.044 0.111357,0.04763 0.164063,0.01562 l 1.958984,-1.201167 c 0.384328,0.2239 0.98551,0.404037 1.423828,0.523437 l 0.458985,2.216797 C 14.614313,22.954625 14.665143,23 14.728516,23 L 15.5,23 l 0.771484,0 c 0.06338,0 0.114202,-0.04537 0.126954,-0.109375 l 0.458984,-2.216797 c 0.438319,-0.1194 1.039502,-0.299537 1.423828,-0.523437 l 1.958984,1.201171 c 0.05271,0.032 0.120422,0.02838 0.164063,-0.01562 l 1.035156,-1.046876 c 0.04495,-0.0453 0.05245,-0.115921 0.01758,-0.169921 l -1.04101,-1.59961 -0.128907,0.01953 -0.730468,-1.070312 c -0.746065,1.563963 -2.323843,2.560614 -4.056641,2.5625 -2.485281,0 -4.5,-2.014719 -4.5,-4.500001 0.0014,-1.708129 0.969847,-3.26818 2.499998,-4.027347 l 0,-0.982422 c -0.285238,0.0951 -0.565511,0.202441 -0.78125,0.328125 L 10.759771,9.648436 c -0.02635,-0.016 -0.05696,-0.02389 -0.08594,-0.02148 z"/>
</svg>

<svg xmlns="http://www.w3.org/2000/svg" width="32" height="32" version="1">
 <rect style="opacity:0.2" width="20" height="30" x="6" y="2" rx="1.5" ry="1.5"/>
 <rect style="fill:#8e8e8e" width="20" height="30" x="6" y="1" rx="1.5" ry="1.5"/>
 <rect style="fill:#333333" width="18" height="22" x="7" y="4"/>
 <rect style="fill:#333333" width="4" height="1" x="14" y="2" rx=".5" ry=".492"/>
 <rect style="fill:#4d4d4d" width="4" height="3" x="14" y="27" rx="1" ry="1"/>
 <path style="fill:#ffffff;opacity:0.2" d="M 7.5 1 C 6.669 1 6 1.669 6 2.5 L 6 3.5 C 6 2.669 6.669 2 7.5 2 L 24.5 2 C 25.331 2 26 2.669 26 3.5 L 26 2.5 C 26 1.669 25.331 1 24.5 1 L 7.5 1 z"/>
 <rect style="fill:#4d4d4d" width="3" height="1" x="20" y="28" rx=".5" ry=".5"/>
 <rect style="fill:#4d4d4d" width="3" height="1" x="9" y="28" rx=".5" ry=".5"/>
 <circle style="fill:#333333" cx="19.5" cy="2.5" r=".5"/>
 <path style="opacity:0.2" d="M 17.016,7.975 14,8.5004 V 18.887 L 17,18.5 16.984,13.818 20.523,19 24,18.5 20,13.137 24.014,8.6371 20.494,7.9887 16.984,12.488 Z M 10.674,10.627 C 10.645,10.63 10.618,10.643 10.596,10.665 L 9.5605,11.711 C 9.5156,11.756 9.5081,11.827 9.543,11.881 L 10.793,13.801 C 10.557,14.219 10.379,14.678 10.264,15.158 L 8.1055,15.687 C 8.0456,15.702 8,15.756 8,15.818 V 16.5 17.182 C 8,17.244 8.0456,17.298 8.1055,17.312 L 10.264,17.842 C 10.379,18.322 10.557,18.781 10.793,19.199 L 9.543,21.119 C 9.5081,21.173 9.5156,21.244 9.5605,21.289 L 10.596,22.336 C 10.639,22.38 10.707,22.384 10.76,22.352 L 12.719,21.15 C 13.103,21.374 13.704,21.554 14.143,21.674 L 14.602,23.891 C 14.614,23.955 14.665,24 14.729,24 H 15.5 16.271 C 16.335,24 16.386,23.955 16.398,23.891 L 16.857,21.674 C 17.296,21.554 17.897,21.374 18.281,21.15 L 20.24,22.352 C 20.293,22.384 20.361,22.38 20.404,22.336 L 21.439,21.289 C 21.484,21.244 21.492,21.173 21.457,21.119 L 20.416,19.52 20.287,19.539 19.557,18.469 C 18.811,20.033 17.233,21.029 15.5,21.031 13.015,21.031 11,19.017 11,16.531 11.001,14.823 11.97,13.263 13.5,12.504 V 11.521 C 13.215,11.617 12.934,11.724 12.719,11.85 L 10.76,10.649 C 10.733,10.633 10.703,10.625 10.674,10.627 Z"/>
 <path style="fill:#ffffff" d="M 17.016,6.975 14,7.5004 V 17.887 L 17,17.5 16.984,12.818 20.523,18 24,17.5 20,12.137 24.014,7.6371 20.494,6.9887 16.984,11.488 Z M 10.674,9.6274 C 10.645,9.6298 10.618,9.6425 10.596,9.6645 L 9.5605,10.711 C 9.5156,10.756 9.5081,10.827 9.543,10.881 L 10.793,12.801 C 10.557,13.219 10.379,13.678 10.264,14.158 L 8.1055,14.687 C 8.0456,14.702 8,14.756 8,14.818 V 15.5 16.182 C 8,16.244 8.0456,16.298 8.1055,16.312 L 10.264,16.842 C 10.379,17.322 10.557,17.781 10.793,18.199 L 9.543,20.119 C 9.5081,20.173 9.5156,20.244 9.5605,20.289 L 10.596,21.336 C 10.639,21.38 10.707,21.384 10.76,21.352 L 12.719,20.15 C 13.103,20.374 13.704,20.554 14.143,20.674 L 14.602,22.891 C 14.614,22.955 14.665,23 14.729,23 H 15.5 16.271 C 16.335,23 16.386,22.955 16.398,22.891 L 16.857,20.674 C 17.296,20.554 17.897,20.374 18.281,20.15 L 20.24,21.352 C 20.293,21.384 20.361,21.38 20.404,21.336 L 21.439,20.289 C 21.484,20.244 21.492,20.173 21.457,20.119 L 20.416,18.52 20.287,18.539 19.557,17.469 C 18.811,19.033 17.233,20.029 15.5,20.031 13.015,20.031 11,18.017 11,15.531 11.001,13.823 11.97,12.263 13.5,11.504 V 10.521 C 13.215,10.617 12.934,10.724 12.719,10.85 L 10.76,9.6488 C 10.733,9.6328 10.703,9.6249 10.674,9.6274 Z"/>
</svg>
